assets/French fries/Flat/french_fries_flat.svg

<svg width="32" height="32" viewBox="0 0 32 32" fill="none" xmlns="http://www.w3.org/2000/svg">
<path d="M28.87 12.33C28.87 6.62 24.25 2 18.54 2H13.33C7.63 2 3 6.62 3 12.33L7.7 21.03H24.17L28.87 12.33Z" fill="#CA0B4A"/>
<path d="M16.5301 3.60999H14.3101L13.6875 4.65625L13.7736 7.10132L11.76 7.31999L11.1875 8.375L11.7997 13.8456L10.63 6.83999C10.55 6.38999 10.12 6.07999 9.66998 6.15999L7.47998 6.52999L6.96875 7.5L10.56 25L12.75 24.63C12.8383 24.6143 12.9212 24.5851 12.9969 24.5449L13.1562 25.9688L16.01 25.7C16.47 25.65 16.8 25.24 16.75 24.78L16.6912 24.2442L18.95 24.56C19.41 24.62 19.83 24.3 19.89 23.84L20.9133 16.0058L20.53 25.66L22.73 25.95C23.19 26.01 23.61 25.69 23.67 25.23L25.88 8.30999C25.94 7.84999 25.62 7.42999 25.16 7.36999L22.96 7.07999L21.9896 7.76551L22.1 6.92C22.16 6.46 21.83 6.04 21.38 5.98L19.18 5.69L18.3438 6.40625L17.3601 14.0602V4.43999C17.3701 3.97999 16.9901 3.60999 16.5301 3.60999Z" fill="#FCD53F"/>
<path d="M13.85 3.60999H14.31V7.11265C14.2035 7.07943 14.0884 7.06712 13.97 7.07999L13.02 7.18316V4.43999C13.02 3.97999 13.39 3.60999 13.85 3.60999Z" fill="#FFB02E"/>
<path d="M13.3904 22.2021L13.7999 25.94L13.3399 25.99C12.8799 26.04 12.4699 25.71 12.4199 25.25L10.5599 8.28999C10.5099 7.82999 10.8399 7.41999 11.2999 7.36999L11.7599 7.31999L13.3904 22.2021V22.2021Z" fill="#FFB02E"/>
<path d="M7.46993 6.51999L7.01994 6.59999C6.56994 6.67999 6.25994 7.10999 6.32994 7.55999L9.13994 24.39C9.21994 24.84 9.64994 25.15 10.0999 25.08L10.5599 25L7.46993 6.51999Z" fill="#FFB02E"/>
<path d="M19.89 23.84C19.8493 24.1519 19.6431 24.3994 19.3712 24.5078L19.35 24.67C19.29 25.13 19.61 25.55 20.07 25.61L20.53 25.67L22.96 7.08999L22.5 7.02999C22.3519 7.01068 22.2079 7.03075 22.0788 7.0822L19.89 23.84Z" fill="#FFB02E"/>
<path d="M19.17 5.69L18.71 5.63C18.25 5.57 17.83 5.89 17.77 6.35L15.56 23.27C15.5 23.73 15.82 24.15 16.28 24.21L16.74 24.27L19.17 5.69Z" fill="#FFB02E"/>
<path d="M24.35 12.33C23.65 12.33 23.07 12.84 22.95 13.53C22.36 16.87 19.45 19.41 15.94 19.41C12.43 19.41 9.52001 16.87 8.93001 13.53C8.81001 12.84 8.23001 12.33 7.53001 12.33H3.01001L6.64001 28.29C6.88001 29.35 7.82001 30.1 8.91001 30.1H22.97C24.06 30.1 25 29.35 25.24 28.29L28.87 12.33H24.35Z" fill="#F8312F"/>
</svg>

<svg xmlns="http://www.w3.org/2000/svg" width="32" height="32" fill="none"><path fill="#CA0B4A" d="M28.87 12.33C28.87 6.62 24.25 2 18.54 2h-5.21C7.63 2 3 6.62 3 12.33l4.7 8.7h16.47l4.7-8.7Z"/><path fill="#FCD53F" d="M16.53 3.61h-2.22l-.623 1.046.087 2.445-2.014.219-.572 1.055.612 5.47-1.17-7.005a.835.835 0 0 0-.96-.68l-2.19.37-.511.97L10.56 25l2.19-.37a.839.839 0 0 0 .247-.085l.16 1.424 2.853-.269c.46-.05.79-.46.74-.92l-.059-.536 2.259.316c.46.06.88-.26.94-.72l1.023-7.834-.383 9.654 2.2.29c.46.06.88-.26.94-.72l2.21-16.92a.835.835 0 0 0-.72-.94l-2.2-.29-.97.686.11-.846a.843.843 0 0 0-.72-.94l-2.2-.29-.836.716-.984 7.654V4.44a.822.822 0 0 0-.83-.83Z"/><path fill="#FFB02E" d="M13.85 3.61h.46v3.503a.836.836 0 0 0-.34-.033l-.95.103V4.44c0-.46.37-.83.83-.83ZM13.39 22.202l.41 3.738-.46.05a.833.833 0 0 1-.92-.74L10.56 8.29c-.05-.46.28-.87.74-.92l.46-.05 1.63 14.882ZM7.47 6.52l-.45.08a.85.85 0 0 0-.69.96l2.81 16.83c.08.45.51.76.96.69l.46-.08L7.47 6.52ZM19.89 23.84a.833.833 0 0 1-.519.668l-.021.162c-.06.46.26.88.72.94l.46.06 2.43-18.58-.46-.06a.84.84 0 0 0-.421.052L19.89 23.84ZM19.17 5.69l-.46-.06a.835.835 0 0 0-.94.72l-2.21 16.92c-.06.46.26.88.72.94l.46.06 2.43-18.58Z"/><path fill="#F8312F" d="M24.35 12.33c-.7 0-1.28.51-1.4 1.2-.59 3.34-3.5 5.88-7.01 5.88s-6.42-2.54-7.01-5.88c-.12-.69-.7-1.2-1.4-1.2H3.01l3.63 15.96a2.323 2.323 0 0 0 2.27 1.81h14.06c1.09 0 2.03-.75 2.27-1.81l3.63-15.96h-4.52Z"/></svg>
